X:1
T:I've Been Working on the Railroad
M:4/4
L:1/8
K:G
 G3 D G3/2 D/2 G3/2 A/2| B4 G4| c3 c G2 A2| B8| G3 D G3/2 D/2 G3/2 A/2|\
 B4 G2 B3/2 B/2| B2 A2 A2 B2| A8| A3 A ^G3/2 A/2 B3/2 A/2| G4 D4| c2 c3/2 c/2 G3/2 G/2 A3/2 A/2|\
 B8| E3 F G3/2 F/2 G3/2 E/2| D4 G4| B2 c2 B2 A2| G8| D3/2 D/2 D3/2 D/2 G4|\
 E3/2 E/2 E3/2 E/2 A4| F3/2 F/2 F3/2 F/2 E2 F2| G2 A2 B4| D3/2 D/2 D3/2 D/2 G4|\
 E3/2 E/2 E3/2 E/2 A4| F3/2 F/2 F3/2 F/2 E2 F2| G8| B3/2 B/2 B3/2 B/2 G3/2 G/2 G2|\
 D4 G4| B3/2 B/2 B3/2 B/2 GG G2| A2 F2 E2 D2| B3/2 B/2 B3/2 B/2G/2 G3/2 G2|\
 c4 c4| B3/2 B/2 B3/2 B/2 A2 A2| G8| B4 G4| D3.99999962500005/5.99999925000009 D3.99999962500005/5.99999925000009 D3.99999962500005/5.99999925000009 D2 G4|\
 B2 B2 G3.99999962500005/5.99999925000009 G3.99999962500005/5.99999925000009 G3.99999962500005/5.99999925000009 G2|\
 A2 F2 E2 D2| B4 G4| c3.99999962500005/5.99999925000009 c3.99999962500005/5.99999925000009 c3.99999962500005/5.99999925000009 c2 e4|\
 dd dd c2 A2| G8|
